fa/svgs/regular/star.svg

<svg xmlns="http://www.w3.org/2000/svg" viewBox="0 0 576 512"><!--! Font Awesome Free 6.1.1 by @fontawesome - https://fontawesome.com License - https://fontawesome.com/license/free (Icons: CC BY 4.0, Fonts: SIL OFL 1.1, Code: MIT License) Copyright 2022 Fonticons, Inc.--><path d="M287.9 0c9.2 0 17.6 5.25 21.6 13.52l68.6 141.28 153.3 22.7c9 1.3 16.4 7.6 19.3 16.2 2.8 8.7.5 18.2-5.9 24.5L433.6 328.4l26.3 155.5c1.5 9-2.2 18.2-9.7 23.5-7.4 5.3-18.1 6-25.3 1.7l-137-73.2-137.8 73.2c-7.2 4.3-17 3.6-24.5-1.7-7.4-5.3-11.1-14.5-10.5-23.5l27.1-155.5L31.11 218.2c-6.46-6.3-8.75-15.8-5.91-24.5 2.83-8.6 10.3-14.9 19.29-16.2l153.21-22.7 68.6-141.28C270.4 5.249 278.7 0 287.9 0zm0 78.95L235.4 187.2c-3.5 7.1-10.3 12.1-18.1 13.3L98.98 217.9 184.9 303c5.5 5.5 8 13.4 6.7 21.1l-20.2 119.6 105.2-56.2c7.1-3.8 15.6-3.8 22.6 0l105.2 56.2-20.2-119.6c-1.3-7.7 1.3-15.6 6.8-21.1l85.9-85.1-118.3-17.4c-7.9-1.2-14.7-6.2-18.1-13.3L287.9 78.95z"/></svg>

<svg xmlns="http://www.w3.org/2000/svg" viewBox="0 0 576 512"><!--! Font Awesome Free 6.2.1 by @fontawesome - https://fontawesome.com License - https://fontawesome.com/license/free (Icons: CC BY 4.0, Fonts: SIL OFL 1.1, Code: MIT License) Copyright 2022 Fonticons, Inc. --><path d="M287.9 0C297.1 0 305.5 5.25 309.5 13.52L378.1 154.8L531.4 177.5C540.4 178.8 547.8 185.1 550.7 193.7C553.5 202.4 551.2 211.9 544.8 218.2L433.6 328.4L459.9 483.9C461.4 492.9 457.7 502.1 450.2 507.4C442.8 512.7 432.1 513.4 424.9 509.1L287.9 435.9L150.1 509.1C142.9 513.4 133.1 512.7 125.6 507.4C118.2 502.1 114.5 492.9 115.1 483.9L142.2 328.4L31.11 218.2C24.65 211.9 22.36 202.4 25.2 193.7C28.03 185.1 35.5 178.8 44.49 177.5L197.7 154.8L266.3 13.52C270.4 5.249 278.7 0 287.9 0L287.9 0zM287.9 78.95L235.4 187.2C231.9 194.3 225.1 199.3 217.3 200.5L98.98 217.9L184.9 303C190.4 308.5 192.9 316.4 191.6 324.1L171.4 443.7L276.6 387.5C283.7 383.7 292.2 383.7 299.2 387.5L404.4 443.7L384.2 324.1C382.9 316.4 385.5 308.5 391 303L476.9 217.9L358.6 200.5C350.7 199.3 343.9 194.3 340.5 187.2L287.9 78.95z"/></svg>
